Logo/Logo.svg

<?xml version="1.0" encoding="UTF-8" standalone="no"?>
<svg
   width="500mm"
   height="500mm"
   viewBox="0 0 499.99998 500"
   version="1.1"
   id="svg1"
   sodipodi:docname="Logo.svg"
   inkscape:export-filename="Logo.png"
   inkscape:export-xdpi="26.0096"
   inkscape:export-ydpi="26.0096"
   inkscape:version="1.3.2 (091e20ef0f, 2023-11-25)"
   xmlns:inkscape="http://www.inkscape.org/namespaces/inkscape"
   xmlns:sodipodi="http://sodipodi.sourceforge.net/DTD/sodipodi-0.dtd"
   xmlns="http://www.w3.org/2000/svg"
   xmlns:svg="http://www.w3.org/2000/svg"
   xmlns:rdf="http://www.w3.org/1999/02/22-rdf-syntax-ns#"
   xmlns:cc="http://creativecommons.org/ns#"
   xmlns:dc="http://purl.org/dc/elements/1.1/">
  <sodipodi:namedview
     id="namedview1"
     pagecolor="#ffffff"
     bordercolor="#666666"
     borderopacity="1.0"
     inkscape:showpageshadow="2"
     inkscape:pageopacity="0.0"
     inkscape:pagecheckerboard="0"
     inkscape:deskcolor="#d1d1d1"
     inkscape:document-units="mm"
     inkscape:zoom="0.16070916"
     inkscape:cx="476.01517"
     inkscape:cy="1079.59"
     inkscape:window-width="1920"
     inkscape:window-height="1054"
     inkscape:window-x="0"
     inkscape:window-y="0"
     inkscape:window-maximized="1"
     inkscape:current-layer="svg1" />
  <title
     id="title1">Logo</title>
  <defs
     id="defs1">
    <view
       id="view-1"
       viewBox="607 0 500 600">
      <title>Logo-vertical</title>
    </view>
    <view
       id="view-2"
       viewBox="1159.3 8.3 1000 375">
      <title>Logo-horizontal</title>
    </view>
  </defs>
  <rect
     style="fill:#106d20;fill-opacity:1;stroke-width:0.264583"
     id="rect1"
     width="512"
     height="512"
     x="1.8651747e-14"
     y="1.8651747e-14" />
  <g
     id="layer1"
     transform="matrix(0.70000023,0,0,0.70000023,21.653667,-5.4686643)"
     style="fill:#ffffff">
    <path
       style="fill:#ffffff"
       d="m 173.83,595.102 c -6.572,-6.214 -41.759,-45.479 -61.131,-85.636 -12.199,-25.287 -12.216,-25.715 -0.616,-15.369 19.513,17.404 24.081,19.573 12.184,5.786 -37.879,-43.897 -53.828,-107.75 -46.2,-184.961 1.826,-18.483 3.098,-17.899 9.755,4.479 10.203,34.293 27.871,69.91 41.495,83.648 4.639,4.678 4.084,2.728 -4.551,-15.983 -41.134,-89.135 -29.777,-185.639 30.669,-260.588 13.282,-16.47 11.874,-19.284 14.262,28.499 8.41,168.283 74.023,357.705 103.975,300.173 3.384,-6.499 12.143,-18.82 19.465,-27.38 30.693,-35.886 42.584,-72.897 30.577,-95.174 -10.726,-19.898 -57.794,-22.786 -57.794,-3.547 0,6.679 -5.443,0.486 -8.136,-9.258 -4.2,-15.197 2.6,-24.076 24.249,-31.665 5.308,-1.86 8.223,-4.667 10.813,-10.411 4.356,-9.66 15.345,-15.963 35.746,-20.505 18.823,-4.19 29.368,-9.877 42.578,-22.966 5.908,-5.853 10.742,-9.717 10.742,-8.588 0,1.13 -0.862,6.98 -1.915,13.001 -2.438,13.934 -0.03,28.16 7.73,45.612 11.623,26.15 11.864,40.021 1.524,87.878 -10.901,50.455 -6.382,95.583 8.426,84.153 43.577,-33.637 80.57,-166.624 85.804,-308.461 1.462,-39.592 0.832,-38.584 13.911,-22.283 62.615,78.041 72.395,174.78 27.151,268.588 -8.921,18.496 -8.921,18.496 -1.791,9.971 17.194,-20.559 33.422,-53.346 43.054,-86.979 7.188,-25.099 8.795,-21.914 10.134,20.089 2.384,74.739 -10.928,120.876 -46.27,160.372 -13.842,15.468 -11.07,15.758 6.103,0.636 15.774,-13.89 16.017,-13.71 7.199,5.311 -20.829,44.931 -54.957,87.975 -64.152,92.033 -51.778,22.854 -238.389,28.835 -304.99,-0.475 z"
       id="path1" />
    <path
       style="fill:#106d20;fill-opacity:1;stroke-width:1.42177"
       d="m 303.7621,287.53641 c -0.16093,-0.16456 -0.20177,-0.4139 -0.19873,-0.66118 0.19116,-15.95975 19.17016,-13.59028 22.31772,-8.57291 0.0439,0.0702 0.0753,0.14369 0.098,0.22113 0.0242,0.0784 0.0363,0.15941 0.0363,0.24199 0.25682,7.06572 -11.4121,8.84117 -21.48382,9.02 -0.62902,0.0121 -0.58277,-0.0556 -0.77207,-0.24895 z"
       id="path2-5" />
  </g>
  <metadata
     id="metadata1">
    <rdf:RDF>
      <cc:Work
         rdf:about="">
        <dc:title>Logo</dc:title>
      </cc:Work>
    </rdf:RDF>
  </metadata>
</svg>

<?xml version="1.0" encoding="utf-8"?>
<svg width="500mm" height="500mm" viewBox="0 0 512 512" version="1.1" id="svg1" xmlns="http://www.w3.org/2000/svg" xmlns:bx="https://boxy-svg.com">
  <title>Logo</title>
  <defs>
    <view id="view-1" viewBox="607 0 500 600">
      <title>Logo-vertical</title>
    </view>
    <view id="view-2" viewBox="1159.3 8.3 900 375">
      <title>Logo-horizontal</title>
    </view>
  </defs>
  <rect style="fill: rgb(16, 109, 32);" width="512" height="512"/>
  <g transform="matrix(-0.914286, 0, 0, 0.914286, 484.571564, 27.428608)" style="">
    <g id="layer1" transform="matrix(0.84, 0, 0, 0.84, -24.015442, -56.562424)">
      <path style="stroke-width: 7.89364; fill: rgb(255, 255, 255);" d="M 173.83 595.102 C 167.258 588.888 132.071 549.623 112.699 509.466 C 100.5 484.179 100.483 483.751 112.083 494.097 C 131.596 511.501 136.164 513.67 124.267 499.883 C 86.388 455.986 70.439 392.133 78.067 314.922 C 79.893 296.439 81.165 297.023 87.822 319.401 C 98.025 353.694 115.693 389.311 129.317 403.049 C 133.956 407.727 133.401 405.777 124.766 387.066 C 83.632 297.931 94.989 201.427 155.435 126.478 C 168.717 110.008 167.309 107.194 169.697 154.977 C 178.107 323.26 243.72 512.682 273.672 455.15 C 277.056 448.651 285.815 436.33 293.137 427.77 C 323.83 391.884 335.721 354.873 323.714 332.596 C 312.988 312.698 265.92 309.81 265.92 329.049 C 265.92 335.728 260.477 329.535 257.784 319.791 C 253.584 304.594 260.384 295.715 282.033 288.126 C 287.341 286.266 290.256 283.459 292.846 277.715 C 297.202 268.055 308.191 261.752 328.592 257.21 C 347.415 253.02 357.96 247.333 371.17 234.244 C 377.078 228.391 381.912 224.527 381.912 225.656 C 381.912 226.786 381.05 232.636 379.997 238.657 C 377.559 252.591 379.967 266.817 387.727 284.269 C 399.35 310.419 399.591 324.29 389.251 372.147 C 378.35 422.602 382.869 467.73 397.677 456.3 C 441.254 422.663 478.247 289.676 483.481 147.839 C 484.943 108.247 484.313 109.255 497.392 125.556 C 560.007 203.597 569.787 300.336 524.543 394.144 C 515.622 412.64 515.622 412.64 522.752 404.115 C 539.946 383.556 556.174 350.769 565.806 317.136 C 572.994 292.037 574.601 295.222 575.94 337.225 C 578.324 411.964 565.012 458.101 529.67 497.597 C 515.828 513.065 518.6 513.355 535.773 498.233 C 551.547 484.343 551.79 484.523 542.972 503.544 C 522.143 548.475 488.015 591.519 478.82 595.577 C 427.042 618.431 240.431 624.412 173.83 595.102 Z" id="path1"/>
    </g>
    <path style="stroke: rgb(0, 0, 0); transform-box: fill-box; transform-origin: 50% 50%; fill: rgb(16, 109, 32);" transform="matrix(-0.173992, -0.266159, 0.342243, -0.22373, -446.152802, -196.93399)" d="M 688.075 339.014 A 62 62 0 0 1 688.075 421.986 A 90.134 90.134 0 0 1 688.075 339.014 Z" bx:shape="crescent 642 380.5 62 84 0.79 1@cd36d327"/>
  </g>
  <rect style="fill: rgb(16, 109, 32);" x="607.074" y="0" width="500" height="600" rx="0" ry="0"/>
  <g transform="matrix(-0.892857, 0, 0, 0.892857, 1080.288208, 26.785839)" style="">
    <g id="g-1" transform="matrix(0.84, 0, 0, 0.84, -24.015442, -56.562424)">
      <path style="stroke-width: 7.89364; fill: rgb(255, 255, 255);" d="M 173.83 595.102 C 167.258 588.888 132.071 549.623 112.699 509.466 C 100.5 484.179 100.483 483.751 112.083 494.097 C 131.596 511.501 136.164 513.67 124.267 499.883 C 86.388 455.986 70.439 392.133 78.067 314.922 C 79.893 296.439 81.165 297.023 87.822 319.401 C 98.025 353.694 115.693 389.311 129.317 403.049 C 133.956 407.727 133.401 405.777 124.766 387.066 C 83.632 297.931 94.989 201.427 155.435 126.478 C 168.717 110.008 167.309 107.194 169.697 154.977 C 178.107 323.26 243.72 512.682 273.672 455.15 C 277.056 448.651 285.815 436.33 293.137 427.77 C 323.83 391.884 335.721 354.873 323.714 332.596 C 312.988 312.698 265.92 309.81 265.92 329.049 C 265.92 335.728 260.477 329.535 257.784 319.791 C 253.584 304.594 260.384 295.715 282.033 288.126 C 287.341 286.266 290.256 283.459 292.846 277.715 C 297.202 268.055 308.191 261.752 328.592 257.21 C 347.415 253.02 357.96 247.333 371.17 234.244 C 377.078 228.391 381.912 224.527 381.912 225.656 C 381.912 226.786 381.05 232.636 379.997 238.657 C 377.559 252.591 379.967 266.817 387.727 284.269 C 399.35 310.419 399.591 324.29 389.251 372.147 C 378.35 422.602 382.869 467.73 397.677 456.3 C 441.254 422.663 478.247 289.676 483.481 147.839 C 484.943 108.247 484.313 109.255 497.392 125.556 C 560.007 203.597 569.787 300.336 524.543 394.144 C 515.622 412.64 515.622 412.64 522.752 404.115 C 539.946 383.556 556.174 350.769 565.806 317.136 C 572.994 292.037 574.601 295.222 575.94 337.225 C 578.324 411.964 565.012 458.101 529.67 497.597 C 515.828 513.065 518.6 513.355 535.773 498.233 C 551.547 484.343 551.79 484.523 542.972 503.544 C 522.143 548.475 488.015 591.519 478.82 595.577 C 427.042 618.431 240.431 624.412 173.83 595.102 Z" id="path-1"/>
    </g>
    <path style="stroke: rgb(0, 0, 0); transform-box: fill-box; transform-origin: 50% 50%; fill: rgb(16, 109, 32);" transform="matrix(-0.173992, -0.266159, 0.342243, -0.22373, -446.152802, -196.93399)" d="M 688.075 339.014 A 62 62 0 0 1 688.075 421.986 A 90.134 90.134 0 0 1 688.075 339.014 Z" bx:shape="crescent 642 380.5 62 84 0.79 1@cd36d327"/>
  </g>
  <text style="fill: rgb(255, 255, 255); font-family: Montserrat; font-size: 76px; font-weight: 900; white-space: pre;" x="684.635" y="536.464">FOSSIFY</text>
  <rect style="fill: rgb(16, 109, 32);" x="1159.3" y="8.3" width="900" height="375" rx="0" ry="0"/>
  <g transform="matrix(-0.595238, 0, 0, 0.595238, 1495.609741, 48.631401)" style="">
    <g id="g-2" transform="matrix(0.84, 0, 0, 0.84, -24.015442, -56.562424)">
      <path style="stroke-width: 7.89364; fill: rgb(255, 255, 255);" d="M 173.83 595.102 C 167.258 588.888 132.071 549.623 112.699 509.466 C 100.5 484.179 100.483 483.751 112.083 494.097 C 131.596 511.501 136.164 513.67 124.267 499.883 C 86.388 455.986 70.439 392.133 78.067 314.922 C 79.893 296.439 81.165 297.023 87.822 319.401 C 98.025 353.694 115.693 389.311 129.317 403.049 C 133.956 407.727 133.401 405.777 124.766 387.066 C 83.632 297.931 94.989 201.427 155.435 126.478 C 168.717 110.008 167.309 107.194 169.697 154.977 C 178.107 323.26 243.72 512.682 273.672 455.15 C 277.056 448.651 285.815 436.33 293.137 427.77 C 323.83 391.884 335.721 354.873 323.714 332.596 C 312.988 312.698 265.92 309.81 265.92 329.049 C 265.92 335.728 260.477 329.535 257.784 319.791 C 253.584 304.594 260.384 295.715 282.033 288.126 C 287.341 286.266 290.256 283.459 292.846 277.715 C 297.202 268.055 308.191 261.752 328.592 257.21 C 347.415 253.02 357.96 247.333 371.17 234.244 C 377.078 228.391 381.912 224.527 381.912 225.656 C 381.912 226.786 381.05 232.636 379.997 238.657 C 377.559 252.591 379.967 266.817 387.727 284.269 C 399.35 310.419 399.591 324.29 389.251 372.147 C 378.35 422.602 382.869 467.73 397.677 456.3 C 441.254 422.663 478.247 289.676 483.481 147.839 C 484.943 108.247 484.313 109.255 497.392 125.556 C 560.007 203.597 569.787 300.336 524.543 394.144 C 515.622 412.64 515.622 412.64 522.752 404.115 C 539.946 383.556 556.174 350.769 565.806 317.136 C 572.994 292.037 574.601 295.222 575.94 337.225 C 578.324 411.964 565.012 458.101 529.67 497.597 C 515.828 513.065 518.6 513.355 535.773 498.233 C 551.547 484.343 551.79 484.523 542.972 503.544 C 522.143 548.475 488.015 591.519 478.82 595.577 C 427.042 618.431 240.431 624.412 173.83 595.102 Z" id="path-2"/>
    </g>
    <path style="stroke: rgb(0, 0, 0); transform-box: fill-box; transform-origin: 50% 50%; fill: rgb(16, 109, 32);" transform="matrix(-0.173992, -0.266159, 0.342243, -0.22373, -446.152802, -196.93399)" d="M 688.075 339.014 A 62 62 0 0 1 688.075 421.986 A 90.134 90.134 0 0 1 688.075 339.014 Z" bx:shape="crescent 642 380.5 62 84 0.79 1@cd36d327"/>
  </g>
  <text style="fill: rgb(255, 255, 255); font-family: Montserrat; font-size: 106px; font-weight: 900; white-space: pre;" x="1516.357" y="238.63">FOSSIFY</text>
</svg>
